X:7
T:Alf and Elizabeth's Waltz
R:waltz
C:Bruce Osborne - June 2002
Z:abc by bosborne@kos.net
M:3/4
L:1/8
K:Eb
GF|EB, G,B, EG|c2 B2 (3cde|d2 F2 FG|A3 G FE|\
DB, DF BF|A4 cd|c2 B3 A|G4 GF|\
EB, G,B, EG|c2 B2 (3cde|d2 F2 FG|A3 G FE|\
DB, DF BF|A3 G FE|DB, DF AD|E4||\
Bc|B2 G2 Bc|B2 G2 EC|B,E GE cG|B4 (3cde|\
d2 F2 fe|d2 F2 fe|dc BA G^F|G4 Bc|\
B2 G2 Bc|B2 G2 EC|B,E GE cG|B4 (3cde|\
d2 F2 fe|d2 F2 fe|dc BF DF|E4||
